X:1
T:Title
%%score { ( 1 3 ) | ( 2 4 ) }
L:1/8
Q:1/4=180
M:2/2
K:A
V:1 treble nm="Grand Piano"
V:3 treble 
V:2 bass 
V:4 bass 
V:1
 [Ec]4 [DB]3 [CA] | [CA]4 [CE]4 | G3 F A3 F | [CE]8 | [DE]4 [CE]3 [Ee] | z4 [Fd]4 | c3 A B3 G | %7
w: Amy~L.~Fowler * *|||||||
 A8 | [CE]4 [DF]3 [CE] | [DE]4 [CA]4 | [Ec]3 [DB] [CA]3 [CE] | F8 | F4 F3 F | F4 E4 | A4 c4 | d8 | %16
w: |||||||||
 G8 | [CA]8 | [Ec]4 [DB]3 [CA] | [CA]4 [CE]4 | [DG]3 [DF] [DA]3 [DF] | [CE]8 | [DE]4 [CE]3 [Ee] | %23
w: |||||||
 z4 [Fd]4 | c3 A G3 A | B8 | [CE]4 [DF]3 [CE] | [DE]4 [CA]4 | [Ec]3 [DB] [CA]3 [CE] | F8 | %30
w: |||||||
 F4 F3 F | F4 E4 | A4 c4 | d8 | G8 | [CA]8 |] %36
w: ||||||
V:2
 [A,,A,]4 [A,,G,]3 [A,,A,] | [A,,A,]4 [A,,A,]4 | [D,A,D]3 [D,A,D] [D,F,D]3 [D,G,D] | [A,,A,]8 | %4
 [B,,G,]4 [C,A,]3 [C,C] | [D,C]4 .[D,B,]4 | [E,A,E]3 [E,CE] [E,DE]3 [E,B,E] | [A,CE]8 | %8
 [A,,A,]4 [A,,A,]3 [A,,A,] | [B,,G,]4 [A,,A,]4 | [A,,A,]3 [A,,A,] [A,,A,]3 [A,,A,] | [D,A,D]8 | %12
 [D,A,D]4 [D,A,D]3 [D,A,D] | [D,A,=C]4 [E,A,^C]4 | [E,C]4 [E,A,E]4 | [E,G,E]8 | E4 z4 | [A,,A,]8 | %18
 [A,,A,]4 [A,,G,]3 [A,,A,] | [A,,A,]4 [A,,A,]4 | [A,,A,]3 [A,,A,] [A,,F,]3 [A,,G,] | [A,,A,]8 | %22
 [B,,G,]4 [C,A,]3 [C,A,] | [D,A,]4 .[D,B,]4 | [E,A,E]3 [E,CE] [E,B,E]3 [E,A,E] | [E,G,E]8 | %26
 [A,,A,]4 [A,,A,]3 [A,,A,] | [B,,G,]4 [A,,A,]4 | [A,,A,]3 [A,,A,] [A,,A,]3 [A,,A,] | [D,A,D]8 | %30
 [D,A,D]4 [D,A,D]3 [D,A,D] | [^D,A,=C]4 [E,A,^C]4 | [E,C]4 [E,A,E]4 | [E,G,E]8 | E4 z4 | %35
 [A,,A,]8 |] %36
V:3
 x8 | x8 | x8 | x8 | x8 | [Fe]4 z2 F,2 | x8 | x8 | x8 | x8 | x8 | x8 | x8 | x8 | x8 | x8 | z4 D4 | %17
 x8 | x8 | x8 | x8 | x8 | x8 | [Fe]4 z2 F,2 | x8 | x8 | x8 | x8 | x8 | x8 | x8 | x8 | x8 | x8 | %34
 z4 D4 | x8 |] %36
V:4
 x8 | x8 | x8 | x8 | x8 | x8 | x8 | x8 | x8 | x8 | x8 | x8 | x8 | x8 | x8 | x8 | [E,B,]8 | x8 | %18
 x8 | x8 | x8 | x8 | x8 | x8 | x8 | x8 | x8 | x8 | x8 | x8 | x8 | x8 | x8 | x8 | [E,B,]8 | x8 |] %36

